spanish-missions/markers/presidio.svg

<svg xmlns="http://www.w3.org/2000/svg" xmlns:xlink="http://www.w3.org/1999/xlink" width="900" height="600" version="1.0"><path fill="#fff" d="M0 0h900v600H0Z"/><use xlink:href="#a" transform="matrix(-1 0 0 1 900 0)"/><path id="a" fill="#d9171a" d="m141.21326 46.741081-6.54193-30.838928 52.82368 35.215788 6.54193 30.83893 47.55693 31.704619-6.54193-30.838929 48.43768 32.291789 6.54193 30.83893 47.04745 31.36497-6.54193-30.83893 50.1895 33.45967 6.54193 30.83893 190.6152 127.07681 32.17839-5.02538 50.39443 33.22398-32.63086 5.09604L674.2771 402.117l32.57219-5.08688 49.08645 33.04834-32.17839 5.02538 46.80212 31.20142 32.47698-5.07201 49.26855 33.09139-32.17839 5.02538L900 552.59895V600h-71.27171l-68.88897-45.92598 6.83932 32.24083-52.92252-35.28169-6.83932-32.24083-47.64631-31.76421 6.83932 32.24083-48.52817-32.35211-6.83932-32.24083-47.13619-31.42413 6.83933 32.24083-50.2838-33.52253-6.83932-32.24083-190.6478-127.09855-33.64118 5.25383-48.46727-32.31151 33.64118-5.25383-46.62355-31.08237-33.64118 5.25382-48.46137-32.30758 33.64118-5.25383-46.69499-31.12999-33.641186 5.25382-51.089981-34.05999 33.64118-5.25383L0 47.514422.00001082 0H71.101648Z"/></svg>

<svg width="900" height="600" viewBox="0 0 900 600" fill="none" xmlns="http://www.w3.org/2000/svg">
<g clip-path="url(#clip0_4177_7823)">
<path d="M0 0H900V600H0V0Z" fill="#FFD700"/>
<path d="M758.787 46.7411L765.329 15.9022L712.505 51.1179L705.963 81.9569L658.406 113.661L664.948 82.8226L616.51 115.114L609.968 145.953L562.921 177.318L569.463 146.479L519.273 179.939L512.732 210.778L322.116 337.855L289.938 332.829L239.543 366.053L272.174 371.149L225.723 402.117L193.151 397.03L144.064 430.078L176.243 435.104L129.441 466.305L96.9636 461.233L47.695 494.325L79.8734 499.35L0 552.599V600H71.2717L140.161 554.074L133.321 586.315L186.244 551.033L193.083 518.792L240.729 487.028L233.89 519.269L282.418 486.917L289.258 454.676L336.394 423.252L329.555 455.493L379.838 421.97L386.678 389.729L577.325 262.631L610.967 267.885L659.434 235.573L625.793 230.319L672.416 199.237L706.057 204.491L754.519 172.183L720.878 166.929L767.573 135.799L801.214 141.053L852.304 106.993L818.663 101.739L900 47.5144L900 0H828.898L758.787 46.7411Z" fill="#D9171A"/>
<path d="M141.213 46.7411L134.671 15.9022L187.495 51.1179L194.037 81.9569L241.594 113.661L235.052 82.8226L283.49 115.114L290.032 145.953L337.079 177.318L330.537 146.479L380.727 179.939L387.268 210.778L577.884 337.855L610.062 332.829L660.457 366.053L627.826 371.149L674.277 402.117L706.849 397.03L755.936 430.078L723.757 435.104L770.559 466.305L803.036 461.233L852.305 494.325L820.127 499.35L900 552.599V600H828.728L759.839 554.074L766.679 586.315L713.756 551.033L706.917 518.792L659.271 487.028L666.11 519.269L617.582 486.917L610.742 454.676L563.606 423.252L570.445 455.493L520.162 421.97L513.322 389.729L322.675 262.631L289.033 267.885L240.566 235.573L274.207 230.319L227.584 199.237L193.943 204.491L145.481 172.183L179.122 166.929L132.427 135.799L98.7862 141.053L47.6962 106.993L81.3374 101.739L0 47.5144L1.082e-05 0H71.1016L141.213 46.7411Z" fill="#D9171A"/>
</g>
<defs>
<clipPath id="clip0_4177_7823">
<rect width="900" height="600" fill="white"/>
</clipPath>
</defs>
</svg>
